X:11308
T:Mr. Hallowell's Fancy. BF12.01
M:2/2
L:1/8
Q:150
C:Browne "C" hand
S:MS12,c1835,Browne Coll.,Lakes
R:Hornpipe
O:England
A:Lakes
N:The notes marked "tr" are marked with a squiggle which I believe to be
N:a trill sign
Z:vmp.Cherri Graebe.
K:AMaj
E2|AGAE DEAc|ecec A2 ((3efg)|agfe dcBA|GEAE BEcE|!
AGAE DEAc|ecec A2 fg|afbg gfe^d|e2e2e2:|!
|:EE|"tr"E2GEBE EE|"tr"E2GEBE "added by Ed."GE|BABc dcBA|BAGF edcB|!
AGAF CEAc|ececA2fg|abca fdBG|A2A2A2:||
